X:1
T:Kitchen Girl
L:1/8
M:4/4
I:linebreak $
K:D
V:1 treble
V:1
 "A"a4 "G"g4 | "A"efed c2 cd | e2 f2 g2 a2 | g2 e2 e4 | "A"a4 "G"g4 | "A"efed c2 cd |$
 e2 f2 gfed |1 c2 A2 A4 :|2  c2 A2 A2 AB ||[K:C] |: "Am"cBAc "G"BAGB | "Am"ABAG E2 (3E^FG | A2 B2 c2 d2 |$
 "E"e4 e2 AB | "Am"cBAc "G"BAGB |  "Am"ABAG E2 AB | cBAc "G"BAGB | "Am"A4 A4 :|
